source/manual/Azure Artifacts_COLOR.svg

<?xml version="1.0" encoding="UTF-8" standalone="no"?>
<svg
   xmlns:dc="http://purl.org/dc/elements/1.1/"
   xmlns:cc="http://creativecommons.org/ns#"
   xmlns:rdf="http://www.w3.org/1999/02/22-rdf-syntax-ns#"
   xmlns:svg="http://www.w3.org/2000/svg"
   xmlns="http://www.w3.org/2000/svg"
   xmlns:sodipodi="http://sodipodi.sourceforge.net/DTD/sodipodi-0.dtd"
   xmlns:inkscape="http://www.inkscape.org/namespaces/inkscape"
   version="1.1"
   width="104"
   height="112"
   viewBox="0 0 104 112"
   overflow="hidden"
   id="svg58"
   sodipodi:docname="Azure Artifacts_COLOR.svg"
   style="overflow:hidden;fill:none"
   inkscape:version="0.92.2 (5c3e80d, 2017-08-06)">
  <metadata
     id="metadata62">
    <rdf:RDF>
      <cc:Work
         rdf:about="">
        <dc:format>image/svg+xml</dc:format>
        <dc:type
           rdf:resource="http://purl.org/dc/dcmitype/StillImage" />
      </cc:Work>
    </rdf:RDF>
  </metadata>
  <sodipodi:namedview
     pagecolor="#ffffff"
     bordercolor="#666666"
     borderopacity="1"
     objecttolerance="10"
     gridtolerance="10"
     guidetolerance="10"
     inkscape:pageopacity="0"
     inkscape:pageshadow="2"
     inkscape:window-width="640"
     inkscape:window-height="480"
     id="namedview60"
     showgrid="false"
     inkscape:zoom="2.4583333"
     inkscape:cx="48"
     inkscape:cy="56"
     inkscape:window-x="0"
     inkscape:window-y="0"
     inkscape:window-maximized="0"
     inkscape:current-layer="svg58" />
  <defs
     id="defs26">
    <filter
       id="filter0_f"
       x="8"
       y="-8"
       width="80"
       height="64"
       filterUnits="userSpaceOnUse"
       primitiveUnits="userSpaceOnUse"
       style="color-interpolation-filters:sRGB">
      <feFlood
         flood-opacity="0"
         result="BackgroundImageFix"
         id="feFlood2" />
      <feBlend
         in="SourceGraphic"
         in2="BackgroundImageFix"
         result="shape"
         mode="normal"
         id="feBlend4" />
      <feGaussianBlur
         result="effect1_foregroundBlur"
         stdDeviation="4 4"
         id="feGaussianBlur6" />
    </filter>
    <filter
       id="filter1_f"
       x="24"
       y="40"
       width="80"
       height="64"
       filterUnits="userSpaceOnUse"
       primitiveUnits="userSpaceOnUse"
       style="color-interpolation-filters:sRGB">
      <feFlood
         flood-opacity="0"
         result="BackgroundImageFix"
         id="feFlood9" />
      <feBlend
         in="SourceGraphic"
         in2="BackgroundImageFix"
         result="shape"
         mode="normal"
         id="feBlend11" />
      <feGaussianBlur
         result="effect1_foregroundBlur"
         stdDeviation="4 4"
         id="feGaussianBlur13" />
    </filter>
    <linearGradient
       x2="1"
       gradientUnits="userSpaceOnUse"
       id="paint0_linear"
       gradientTransform="matrix(0,48,-32,0,32,0)">
      <stop
         offset="0"
         stop-color="#E66398"
         id="stop16" />
      <stop
         offset="1"
         stop-color="#EF74A6"
         id="stop18" />
    </linearGradient>
    <linearGradient
       x2="1"
       gradientUnits="userSpaceOnUse"
       id="paint1_linear"
       gradientTransform="matrix(0,96,-96,0,96,0)">
      <stop
         offset="0"
         stop-color="#FFFFFF"
         id="stop21" />
      <stop
         offset="1"
         stop-color="#FFFFFF"
         stop-opacity="0"
         id="stop23" />
    </linearGradient>
  </defs>
  <g
     id="DevOpsIconArtifacts96"
     transform="translate(0,8)">
    <mask
       maskUnits="userSpaceOnUse"
       x="0"
       y="0"
       width="96"
       height="96"
       id="mask0">
      <path
         d="m 16,4 c 0,-2.20898 1.7909,-4 4,-4 h 56 c 2.2091,0 4,1.79102 4,4 v 44 h 12 c 2.2091,0 4,1.791 4,4 v 40 c 0,2.209 -1.7909,4 -4,4 H 4 C 1.79086,96 0,94.209 0,92 V 52 c 0,-2.209 1.79086,-4 4,-4 h 12 z"
         id="Union"
         inkscape:connector-curvature="0"
         style="fill:#ffffff" />
    </mask>
    <g
       mask="url(#mask0)"
       id="g55">
      <g
         id="Group">
        <path
           d="M 0,4 C 0,1.79086 1.79086,0 4,0 h 40 c 2.2091,0 4,1.79086 4,4 v 40 c 0,2.2091 -1.7909,4 -4,4 H 4 C 1.79086,48 0,46.2091 0,44 Z"
           id="Rectangle 2.1"
           transform="translate(0,48)"
           inkscape:connector-curvature="0"
           style="fill:#b21756" />
        <path
           d="m 0,0 h 8.8 c 2.2091,0 4,1.79086 4,4 v 38 c 0,2.2091 -1.7909,4 -4,4 H 0 Z"
           id="Rectangle 2.4"
           transform="translate(35.2,48)"
           inkscape:connector-curvature="0"
           style="fill:#a61550" />
        <rect
           x="0"
           y="0"
           rx="3"
           width="16"
           height="6"
           id="Rectangle"
           transform="translate(16,56)"
           style="fill:#8d0a3f" />
      </g>
      <g
         id="Rectangle 2.4_2"
         style="filter:url(#filter0_f)">
        <path
           d="M 0,4 C 0,1.79086 1.79086,0 4,0 h 56 c 2.2091,0 4,1.79086 4,4 V 48 H 0 Z"
           transform="translate(16)"
           id="path34"
           inkscape:connector-curvature="0"
           style="fill:#890038" />
      </g>
      <g
         id="Group 3">
        <path
           d="M 0,4 C 0,1.79086 1.79086,0 4,0 h 56 c 2.2091,0 4,1.79086 4,4 V 48 H 0 Z"
           id="Rectangle 2.3"
           transform="translate(16)"
           inkscape:connector-curvature="0"
           style="fill:#cb2e6d" />
        <rect
           x="0"
           y="0"
           rx="3"
           width="16"
           height="6"
           id="Rectangle_2"
           transform="translate(32,10)"
           style="fill:#b01c57" />
        <path
           d="m 0,0 h 12 c 2.2091,0 4,1.79086 4,4 V 48 H 0 Z"
           id="Rectangle 2"
           transform="translate(64)"
           inkscape:connector-curvature="0"
           style="fill:#bd2461" />
      </g>
      <g
         id="Rectangle 2_2"
         style="opacity:0.5;filter:url(#filter1_f)">
        <path
           d="m 0,0 h 60 c 2.2091,0 4,1.79086 4,4 v 40 c 0,2.2091 -1.7909,4 -4,4 H 4 C 1.79086,48 0,46.2091 0,44 Z"
           transform="translate(32,48)"
           id="path41"
           inkscape:connector-curvature="0"
           style="fill:#780031" />
      </g>
      <g
         id="Group 2">
        <path
           d="m 0,0 h 60 c 2.2091,0 4,1.79086 4,4 v 40 c 0,2.2091 -1.7909,4 -4,4 H 4 C 1.79086,48 0,46.2091 0,44 Z"
           id="Rectangle 2.4_3"
           transform="translate(32,48)"
           inkscape:connector-curvature="0"
           style="fill:#ef74a6" />
        <path
           d="M 4.57143,48 H 32 V 0 H 0 V 43.8261 C 0,46.1311 2.0467,48 4.57143,48 Z"
           id="Intersect"
           transform="translate(32,48)"
           inkscape:connector-curvature="0"
           style="fill:url(#paint0_linear)" />
        <rect
           x="0"
           y="0"
           rx="3"
           width="16"
           height="6"
           id="Rectangle_3"
           transform="translate(48,56)"
           style="fill:#c82f6d" />
        <path
           d="m 0,0 h 12 c 2.2091,0 4,1.79086 4,4 v 40 c 0,2.2091 -1.7909,4 -4,4 H 0 Z"
           id="Rectangle 2.3_2"
           transform="translate(80,48)"
           inkscape:connector-curvature="0"
           style="fill:#e66398" />
      </g>
      <g
         id="Union_2"
         transform="translate(40,76)">
        <path
           d="M 24,0 H 0 v 4 h 24 z"
           id="path49"
           inkscape:connector-curvature="0"
           style="fill:#fc92be" />
        <path
           d="M 14,8 H 0 v 4 h 14 z"
           id="path51"
           inkscape:connector-curvature="0"
           style="fill:#fc92be" />
      </g>
      <path
         d="m 16,4 c 0,-2.20898 1.7909,-4 4,-4 h 56 c 2.2091,0 4,1.79102 4,4 v 44 h 12 c 2.2091,0 4,1.791 4,4 v 40 c 0,2.209 -1.7909,4 -4,4 H 4 C 1.79086,96 0,94.209 0,92 V 52 c 0,-2.209 1.79086,-4 4,-4 h 12 z"
         id="Union_3"
         inkscape:connector-curvature="0"
         style="opacity:0.2;fill:url(#paint1_linear)" />
    </g>
  </g>
</svg>

<svg version="1.1" width="96" height="96" viewBox="0 0 96 96" xmlns="http://www.w3.org/2000/svg" xmlns:xlink="http://www.w3.org/1999/xlink" fill="none" overflow="hidden"><defs><filter id="filter0_f" color-interpolation-filters="sRGB" x="8" y="-8" width="80" height="64" filterUnits="userSpaceOnUse" primitiveUnits="userSpaceOnUse"><feFlood flood-opacity="0" result="BackgroundImageFix"/><feBlend in="SourceGraphic" in2="BackgroundImageFix" result="shape" mode="normal"/><feGaussianBlur result="effect1_foregroundBlur" stdDeviation="4 4"/></filter><filter id="filter1_f" color-interpolation-filters="sRGB" x="24" y="40" width="80" height="64" filterUnits="userSpaceOnUse" primitiveUnits="userSpaceOnUse"><feFlood flood-opacity="0" result="BackgroundImageFix"/><feBlend in="SourceGraphic" in2="BackgroundImageFix" result="shape" mode="normal"/><feGaussianBlur result="effect1_foregroundBlur" stdDeviation="4 4"/></filter><linearGradient x2="1" gradientUnits="userSpaceOnUse" id="paint0_linear" gradientTransform="matrix(1.95943e-15,48,-32,2.93915e-15,32,0)"><stop offset="0" stop-color="#E66398"/><stop offset="1" stop-color="#EF74A6"/></linearGradient><linearGradient x2="1" gradientUnits="userSpaceOnUse" id="paint1_linear" gradientTransform="matrix(5.8783e-15,96,-96,5.8783e-15,96,0)"><stop offset="0" stop-color="#FFFFFF"/><stop offset="1" stop-color="#FFFFFF" stop-opacity="0"/></linearGradient></defs><g id="DevOpsIconArtifacts96"><mask maskUnits="userSpaceOnUse" x="0" y="0" width="96" height="96" id="mask0"><path d=" M 16 4 C 16 1.79102 17.7909 0 20 0 L 76 0 C 78.2091 0 80 1.79102 80 4 L 80 48 L 92 48 C 94.2091 48 96 49.791 96 52 L 96 92 C 96 94.209 94.2091 96 92 96 L 4 96 C 1.79086 96 0 94.209 0 92 L 0 52 C 0 49.791 1.79086 48 4 48 L 16 48 L 16 4 Z" id="Union" fill="#FFFFFF"/></mask><g mask="url(#mask0)"><g id="Group"><path d=" M 0 4 C 0 1.79086 1.79086 0 4 0 L 44 0 C 46.2091 0 48 1.79086 48 4 L 48 44 C 48 46.2091 46.2091 48 44 48 L 4 48 C 1.79086 48 0 46.2091 0 44 L 0 4 Z" id="Rectangle 2.1" fill="#B21756" transform="matrix(1,0,0,1,0,48)"/><path d=" M 0 0 L 8.8 0 C 11.0091 0 12.8 1.79086 12.8 4 L 12.8 42 C 12.8 44.2091 11.0091 46 8.8 46 L 0 46 L 0 0 Z" id="Rectangle 2.4" fill="#A61550" transform="matrix(1,0,0,1,35.2,48)"/><rect x="0" y="0" rx="3" width="16" height="6" id="Rectangle" fill="#8D0A3F" transform="matrix(1,0,0,1,16,56)"/></g><g id="Rectangle 2.4_2" filter="url(#filter0_f)"><path d=" M 0 4 C 0 1.79086 1.79086 0 4 0 L 60 0 C 62.2091 0 64 1.79086 64 4 L 64 48 L 0 48 L 0 4 Z" fill="#890038" transform="matrix(1,0,0,1,16,0)"/></g><g id="Group 3"><path d=" M 0 4 C 0 1.79086 1.79086 0 4 0 L 60 0 C 62.2091 0 64 1.79086 64 4 L 64 48 L 0 48 L 0 4 Z" id="Rectangle 2.3" fill="#CB2E6D" transform="matrix(1,0,0,1,16,0)"/><rect x="0" y="0" rx="3" width="16" height="6" id="Rectangle_2" fill="#B01C57" transform="matrix(1,0,0,1,32,10)"/><path d=" M 0 0 L 12 0 C 14.2091 0 16 1.79086 16 4 L 16 48 L 0 48 L 0 0 Z" id="Rectangle 2" fill="#BD2461" transform="matrix(1,0,0,1,64,0)"/></g><g id="Rectangle 2_2" filter="url(#filter1_f)" opacity="0.5"><path d=" M 0 0 L 60 0 C 62.2091 0 64 1.79086 64 4 L 64 44 C 64 46.2091 62.2091 48 60 48 L 4 48 C 1.79086 48 0 46.2091 0 44 L 0 0 Z" fill="#780031" transform="matrix(1,0,0,1,32,48)"/></g><g id="Group 2"><path d=" M 0 0 L 60 0 C 62.2091 0 64 1.79086 64 4 L 64 44 C 64 46.2091 62.2091 48 60 48 L 4 48 C 1.79086 48 0 46.2091 0 44 L 0 0 Z" id="Rectangle 2.4_3" fill="#EF74A6" transform="matrix(1,0,0,1,32,48)"/><path d=" M 4.57143 48 L 32 48 L 32 0 L 0 0 L 0 43.8261 C 0 46.1311 2.0467 48 4.57143 48 Z" id="Intersect" fill="url(#paint0_linear)" transform="matrix(1,0,0,1,32,48)"/><rect x="0" y="0" rx="3" width="16" height="6" id="Rectangle_3" fill="#C82F6D" transform="matrix(1,0,0,1,48,56)"/><path d=" M 0 0 L 12 0 C 14.2091 0 16 1.79086 16 4 L 16 44 C 16 46.2091 14.2091 48 12 48 L 0 48 L 0 0 Z" id="Rectangle 2.3_2" fill="#E66398" transform="matrix(1,0,0,1,80,48)"/></g><g id="Union_2" transform="matrix(1,0,0,1,40,76)"><path d=" M 24 0 L 0 0 L 0 4 L 24 4 L 24 0 Z" fill="#FC92BE"/><path d=" M 14 8 L 0 8 L 0 12 L 14 12 L 14 8 Z" fill="#FC92BE"/></g><path d=" M 16 4 C 16 1.79102 17.7909 0 20 0 L 76 0 C 78.2091 0 80 1.79102 80 4 L 80 48 L 92 48 C 94.2091 48 96 49.791 96 52 L 96 92 C 96 94.209 94.2091 96 92 96 L 4 96 C 1.79086 96 0 94.209 0 92 L 0 52 C 0 49.791 1.79086 48 4 48 L 16 48 L 16 4 Z" id="Union_3" fill="url(#paint1_linear)" opacity="0.2"/></g></g></svg>
